Origami/32x32/apps/com.github.robertsanseries.karim.svg

<svg width="32" height="32" version="1" xmlns="http://www.w3.org/2000/svg">
 <path d="m5.4437517 3.0005915a2.3883298 2.1971085 0 0 0 -2.4437517 2.1962684v23.607646a2.3883298 2.1971085 0 0 0 3.5824592 1.901156l11.112096-5.900862 11.111386-5.901561a2.3883298 2.1971085 0 0 0 0 -3.805391l-11.111386-5.9022619-11.112096-5.9014215a2.3883298 2.1971085 0 0 0 -1.1387786 -0.2935731z" style="opacity:.2"/>
 <path d="m5.4437517 2.0005917a2.3883298 2.1971085 0 0 0 -2.4437517 2.1962684v23.607646a2.3883298 2.1971085 0 0 0 3.5824592 1.901156l11.112096-5.900862 11.111386-5.901561a2.3883298 2.1971085 0 0 0 0 -3.805391l-11.111386-5.9022617-11.112096-5.9014215a2.3883298 2.1971085 0 0 0 -1.1387786 -0.2935731z" style="fill:#da3e45"/>
 <rect x="11" y="10" width="3" height="7" rx=".75" ry=".7" style="fill:#ffffff"/>
 <path d="m7.8778711 17.000014a0.53973849 0.87812746 89.999999 0 0 -0.2603032 0.02403 0.53973849 0.87812746 89.999999 0 0 -0.4995413 0.785704l4.6222604 4.920859a0.53973849 0.87812746 89.999999 0 0 1.521193 -0.0012l4.620756-4.919657a0.53973849 0.87812746 89.999999 0 0 -0.759844 -0.809732z" style="opacity:.2"/>
 <path d="m7.8778711 16.000014a0.53973849 0.87812746 89.999999 0 0 -0.2603032 0.02403 0.53973849 0.87812746 89.999999 0 0 -0.4995413 0.785704l4.6222604 4.920859a0.53973849 0.87812746 89.999999 0 0 1.521193 -0.0012l4.620756-4.919657a0.53973849 0.87812746 89.999999 0 0 -0.759844 -0.809732z" style="fill:#ffffff"/>
 <path d="m5.4433594 2a2.3883298 2.1971085 0 0 0 -2.4433594 2.1972656v1a2.3883298 2.1971085 0 0 1 2.4433594 -2.1972656 2.3883298 2.1971085 0 0 1 1.1386718 0.2949219l11.113281 5.9003906 11.111329 5.9023435a2.3883298 2.1971085 0 0 1 1.128906 1.404297 2.3883298 2.1971085 0 0 0 -1.128906 -2.404297l-11.111329-5.9023435-11.113281-5.9003906a2.3883298 2.1971085 0 0 0 -1.1386718 -0.2949219z" style="fill:#ffffff;opacity:.2"/>
</svg>

<svg xmlns="http://www.w3.org/2000/svg" width="32" height="32" version="1">
 <path style="opacity:0.2" d="M 5.4437517,3.0005915 A 2.3883298,2.1971085 0 0 0 3,5.1968599 V 28.804506 a 2.3883298,2.1971085 0 0 0 3.5824592,1.901156 L 17.694555,24.8048 28.805941,18.903239 a 2.3883298,2.1971085 0 0 0 0,-3.805391 L 17.694555,9.1955861 6.5824592,3.2941646 A 2.3883298,2.1971085 0 0 0 5.4436806,3.0005915 Z"/>
 <path style="fill:#da3e45" d="M 5.4437517,2.0005917 A 2.3883298,2.1971085 0 0 0 3,4.1968601 V 27.804506 a 2.3883298,2.1971085 0 0 0 3.5824592,1.901156 L 17.694555,23.8048 28.805941,17.903239 a 2.3883298,2.1971085 0 0 0 0,-3.805391 L 17.694555,8.1955863 6.5824592,2.2941648 A 2.3883298,2.1971085 0 0 0 5.4436806,2.0005917 Z"/>
 <rect style="fill:#ffffff" width="3" height="7" x="11" y="10" rx=".75" ry=".7"/>
 <path style="opacity:0.2" d="m 7.8778711,17.000014 a 0.53973849,0.87812746 89.999999 0 0 -0.2603032,0.02403 0.53973849,0.87812746 89.999999 0 0 -0.4995413,0.785704 l 4.6222604,4.920859 a 0.53973849,0.87812746 89.999999 0 0 1.521193,-0.0012 l 4.620756,-4.919657 a 0.53973849,0.87812746 89.999999 0 0 -0.759844,-0.809732 z"/>
 <path style="fill:#ffffff" d="m 7.8778711,16.000014 a 0.53973849,0.87812746 89.999999 0 0 -0.2603032,0.02403 0.53973849,0.87812746 89.999999 0 0 -0.4995413,0.785704 l 4.6222604,4.920859 a 0.53973849,0.87812746 89.999999 0 0 1.521193,-0.0012 l 4.620756,-4.919657 a 0.53973849,0.87812746 89.999999 0 0 -0.759844,-0.809732 z"/>
 <path style="fill:#ffffff;opacity:0.2" d="M 5.4433594 2 A 2.3883298 2.1971085 0 0 0 3 4.1972656 L 3 5.1972656 A 2.3883298 2.1971085 0 0 1 5.4433594 3 A 2.3883298 2.1971085 0 0 1 6.5820312 3.2949219 L 17.695312 9.1953125 L 28.806641 15.097656 A 2.3883298 2.1971085 0 0 1 29.935547 16.501953 A 2.3883298 2.1971085 0 0 0 28.806641 14.097656 L 17.695312 8.1953125 L 6.5820312 2.2949219 A 2.3883298 2.1971085 0 0 0 5.4433594 2 z"/>
</svg>
